icons/line/file-duplicate.svg

<svg width="24" height="24" viewBox="0 0 24 24" fill="none" xmlns="http://www.w3.org/2000/svg">
<path d="M20 9V15C20 16.1046 19.1046 17 18 17L16 17M20 9V8.82843C20 8.29799 19.7893 7.78929 19.4142 7.41421L15.5858 3.58579C15.2107 3.21071 14.702 3 14.1716 3H14M20 9H16C14.8954 9 14 8.10457 14 7L14 3M14 3H10C8.89543 3 8 3.89543 8 5L8 7M8 7L8 15C8 16.1046 8.89543 17 10 17H16M8 7H6C4.89543 7 4 7.89543 4 9L4 19C4 20.1046 4.89543 21 6 21H14C15.1046 21 16 20.1046 16 19V17" stroke="currentColor" stroke-width="2" stroke-linecap="round" stroke-linejoin="round"/>
</svg>

<svg width="24" height="24" fill="none" xmlns="http://www.w3.org/2000/svg"><path d="M20 9v6a2 2 0 01-2 2h-2m4-8v-.172a2 2 0 00-.586-1.414l-3.828-3.828A2 2 0 0014.172 3H14m6 6h-4a2 2 0 01-2-2V3m0 0h-4a2 2 0 00-2 2v2m0 0v8a2 2 0 002 2h6M8 7H6a2 2 0 00-2 2v10a2 2 0 002 2h8a2 2 0 002-2v-2" stroke="currentColor" stroke-width="2" stroke-linecap="round" stroke-linejoin="round"/></svg>
